X:1
T:James Gibb editions
T:Father of all, to Thee - Barnby
%%score [ ( 1 2 ) ( 3 4 ) ]
L:1/8
Q:1/4=104
M:4/4
K:D
V:1 treble nm="Midi_74"
V:2 treble 
V:3 bass nm="Midi_74"
V:4 bass 
V:1
"^Via pacis (66. 66. 88)""^John Julian\n(1839-1913)""^Father of all, to Thee""^Joseph Barnby\n(1838-96)" F2 FF"^1" A3 A | %1
"^-" G6 || F2 |"^-" E2 D2 E2 E2 | F6 || F2 | B3 B A2 ^G2 | F2 ||[M:4/4] ^G2 A2 d2 | c4 B4 | A6 || %11
 A2 | e2 c2 d2 F2 | c2 ^A2 B2 || !courtesy!=A2 | G2"^1" F2 E2 B2 | D4 E4 | D8 || D4 D4 |] %19
V:2
 D2 DD =C3 C | B,6 || A,2 | C2 D2 D2 C2 | D6 || D2 | F3 F F2 ^E2 | F2 ||[M:4/4] ^E2 F2 F2 | E4 D4 | %10
 C6 || A2 | A2 A2 A2 F2 | F2 F2 F2 || D2 | D2 D2 D2 D2 | D4 C4 | D8 || B,4 A,4 |] %19
V:3
"^1" A,2 A,A,"^-" F,3 F, | G,6 || A,2 |"^-" G,2 F,2 B,2 A,2 | A,6 || A,2 | D3 D C2 C2 | C2 || %8
[M:4/4] B,2 A,2"^1 Father of all, to Thee,\nWith loving hearts we pray,\nThrough Him, in mercy given,\nThe Life, the Truth, the Way;\nFrom heaven, Thy throne, in mercy shed\nThy blessings on each bended head.\n\n2 Father of all, to Thee,\nOur contrite hearts we raise,\nUnstrung by sin and pain,\nLong voiceless in Thy praise;\nBreathe Thou the silent chords along,\nUntil they tremble into song." A,2 | %9
 (A,2 F,2) ^G,4 | A,6 || A,2 | C2 E2 D2 F,2 | ^A,2 C2 B,2 || %14
"^3 Father of all, to Thee,\nwe breathe unuttered fears,\nDeep-hidden in our souls,\nThat have no voice but tears;\nTake Thou our hand, and through the wild\nLead gently on, each trembling child.\n\n4 Father of all, may we\nIn praise our tongues employ,\nWhen gladness fills the soul\nWith deep and hallowed joy;\nIn storm and calm give us to see\nThe path of peace, which leads to Thee." F,2 | %15
 G,2"^1" A,2 B,2 E,2 | F,4 G,4 | F,8 || G,4 F,4 |] %19
V:4
 D,2 D,D, D,3 D, | D,6 || D,2- | A,,2 B,,2 G,,2 A,,2 | D,6 || D,2 | B,,3 B,, C,2 B,2 | A,2 || %8
[M:4/4] ^G,2 F,2 B,,2- | E,4 E,4 | A,6 || A,2 | G,2 A,2 F,2 F,2- | E,2 F,2 D,2 || =C,2 | %15
 B,,2 A,,2 G,,2 G,,2 | A,,4 A,,4 | D,8 || G,,4 D,4 |] %19

